source/img/vector/traktor-4-vector.svg

<svg width="280" height="148" viewBox="0 0 280 148" fill="none" xmlns="http://www.w3.org/2000/svg">
<circle cx="95.4051" cy="111.843" r="9.83333" fill="#A0A1A2"/>
<path fill-rule="evenodd" clip-rule="evenodd" d="M95.1057 134.789C107.613 134.789 117.752 124.65 117.752 112.143C117.752 99.6355 107.613 89.4964 95.1057 89.4964C82.5984 89.4964 72.4593 99.6355 72.4593 112.143C72.4593 124.65 82.5984 134.789 95.1057 134.789ZM95.1057 147.9C114.854 147.9 130.863 131.891 130.863 112.143C130.863 92.3945 114.854 76.3853 95.1057 76.3853C75.3574 76.3853 59.3481 92.3945 59.3481 112.143C59.3481 131.891 75.3574 147.9 95.1057 147.9Z" fill="#A0A1A2"/>
<path fill-rule="evenodd" clip-rule="evenodd" d="M235.575 134.789C248.083 134.789 258.222 124.65 258.222 112.142C258.222 99.635 248.083 89.4959 235.575 89.4959C223.068 89.4959 212.929 99.635 212.929 112.142C212.929 124.65 223.068 134.789 235.575 134.789ZM235.575 147.9C255.324 147.9 271.333 131.891 271.333 112.142C271.333 92.394 255.324 76.3848 235.575 76.3848C215.827 76.3848 199.818 92.394 199.818 112.142C199.818 131.891 215.827 147.9 235.575 147.9Z" fill="#A0A1A2"/>
<circle cx="235.874" cy="111.843" r="9.83333" fill="#A0A1A2"/>
<path fill-rule="evenodd" clip-rule="evenodd" d="M36.2767 100.224H52.6656C61.2468 75.9086 82.0665 71.2203 91.4037 71.9155C123.347 71.6772 131.532 99.429 131.631 113.335H145.337L142.186 113.335C140.517 76.3851 110.5 66.1545 95.7008 65.9558C69.9553 66.1942 55.7715 88.9003 51.8977 100.224H48.024C51.6639 89.7083 57.0076 81.9834 62.9262 76.3853L39.0856 76.3853V74.0015H65.6318C66.6716 73.1489 67.7234 72.3559 68.7813 71.6192L39.0842 71.6192V69.2354H72.5518C74.1405 68.3274 75.728 67.5359 77.2955 66.8497L39.0846 66.8497V64.4658H80.2046V41.2236H83.1844V64.7063C88.0549 63.2808 92.4493 62.8347 95.7008 62.976C101.003 63.1355 105.788 63.871 110.098 65.0635H123.884V32.8813H123.115V23.048H120.433V32.8813H115.666V11.4268H123.884V5.46582H125.076V11.676C125.932 12.0376 126.871 12.732 126.691 13.8106V13.8476C127.291 11.6871 128.809 11.126 129.544 11.126H148.019C150.402 11.3644 150.998 13.4105 150.998 14.4038V32.5805H126.691V32.8813H125.076V65.0635H153.084V5.46582H154.276V65.0635H175.559V40.9133L171.56 34.966L166.793 6.95595V4.57211H167.985V1.59231H105.409V4.57211L106.601 5.76403V8.14786L108.091 9.63776V34.3701C106.66 34.6085 106.104 37.2506 106.005 38.5419H98.5552V6.95595H94.3835V0.400391H88.126V38.5419H84.5502V24.5368H82.4643V38.5419C79.8421 38.0651 78.9879 40.3297 78.8886 41.5217H5.28757V44.7978L79.186 44.7979V47.1817L5.28757 47.1817V54.333H77.9937V56.7168H33.1253V82.9424H53.5593V85.3262H33.1253V100.821H36.2767V100.224ZM177.347 43.5722V65.0635H183.182V52.2489L177.347 43.5722ZM175.559 67.4473H166.022V113.335H171.56V106.183H194.803C198.814 91.4321 204.917 78.7622 213.818 73.9179C214.75 73.4108 215.837 72.9902 217.035 72.6424C218.314 72.4999 220.078 72.3124 222.147 72.1163C232.41 71.3189 243.818 71.4004 243.818 71.4004C243.04 71.3933 241.951 71.3498 240.639 71.2974L240.638 71.2973L240.637 71.2973L240.635 71.2972C239.371 71.2467 237.9 71.188 236.3 71.1456C230.379 70.9883 222.698 71.0538 217.238 72.5846C216.404 72.6818 215.595 72.7868 214.818 72.9004C214.318 70.7632 200.935 81.8873 198.378 85.0266L195.524 85.0265V97.5417C195.524 98.535 195.107 100.521 193.438 100.521H182.413V98.4356H191.65C192.147 98.3363 193.08 97.7205 192.842 96.0518V92.1781H183.903C183.009 92.2774 181.221 91.8205 181.221 89.1983V82.3447L177.347 82.3448V90.688H175.559V82.3448H173.348V70.1277H175.559V67.4473ZM191.525 85.0266H192.544V89.1983H183.903V82.3882L191.525 85.0266ZM177.347 70.1277V67.4473H187.055V70.1277H177.347ZM145.337 67.4473V108.689C144.489 98.7352 139.926 85.0069 128.932 75.1917H141.763V72.2119H128.652V74.9436C125.319 72.0169 121.404 69.4488 116.834 67.4473H145.337ZM163.638 67.4473L147.721 67.4473V113.335H163.638V67.4473ZM5.28757 56.7168H31.3374V82.9424H5.28757V56.7168ZM5.28662 85.3262H31.3374V100.821H28.9546V103.801H36.2767V105.587H28.9546V109.759H36.2767V112.143H28.9546V116.91H36.2767V119.294H22.8676V100.224H11.2464V102.012C9.75652 102.806 7.49187 105.051 10.3525 107.673C11.7432 108.17 14.7034 108.269 15.4186 104.693C16.2132 104.395 17.6236 104.574 16.9085 107.673C15.9152 109.858 11.2464 113.335 7.07513 109.163C5.98268 108.07 4.45325 105.111 7.07513 102.012V100.224H0.817871V84.7287H5.28662V85.3262ZM24.9529 58.5049H21.9731V71.616H24.9529V58.5049ZM56.6654 52.5467V49.5669H43.5543V52.5467H56.6654ZM156.361 32.5822V11.7236H164.108L167.684 32.5822H162.618V26.6226H160.533V32.5822H156.361ZM161.428 78.1729V75.7891H151.297V78.1729H161.428ZM161.428 90.0918V92.4756H151.297V90.0918H161.428ZM161.428 105.587V103.203H151.297V105.587H161.428Z" fill="#A0A1A2"/>
<path d="M235.318 71.3993C216.818 71.3993 202.318 86.3999 193.318 106.399L196.818 84.8995C211.318 71.3993 218.818 66.4007 235.318 66.4004C267.318 66.3999 277.318 93.9002 279.818 103.899H275.818C268.618 75.8994 244.318 71.3993 235.318 71.3993Z" fill="#A0A1A2"/>
</svg>

<svg width="280" height="148" fill="none" xmlns="http://www.w3.org/2000/svg"><circle cx="95.405" cy="111.843" r="9.833" fill="#A0A1A2"/><path fill-rule="evenodd" clip-rule="evenodd" d="M95.106 134.789c12.507 0 22.646-10.139 22.646-22.646 0-12.508-10.139-22.647-22.646-22.647-12.508 0-22.647 10.14-22.647 22.647 0 12.507 10.14 22.646 22.647 22.646zm0 13.111c19.748 0 35.757-16.009 35.757-35.757 0-19.749-16.009-35.758-35.757-35.758-19.749 0-35.758 16.01-35.758 35.758S75.358 147.9 95.106 147.9zm140.469-13.111c12.508 0 22.647-10.139 22.647-22.647 0-12.507-10.139-22.646-22.647-22.646-12.507 0-22.646 10.139-22.646 22.646 0 12.508 10.139 22.647 22.646 22.647zm0 13.111c19.749 0 35.758-16.009 35.758-35.758 0-19.748-16.009-35.757-35.758-35.757-19.748 0-35.757 16.009-35.757 35.757 0 19.749 16.009 35.758 35.757 35.758z" fill="#A0A1A2"/><circle cx="235.874" cy="111.843" r="9.833" fill="#A0A1A2"/><path fill-rule="evenodd" clip-rule="evenodd" d="M36.277 100.224h16.389c8.58-24.315 29.4-29.004 38.738-28.309 31.943-.238 40.128 27.514 40.227 41.42h13.706-3.151c-1.669-36.95-31.686-47.18-46.485-47.38-25.746.24-39.93 22.945-43.803 34.269h-3.874c3.64-10.516 8.984-18.24 14.902-23.839h-23.84v-2.384h26.546a50.31 50.31 0 013.15-2.382H39.083v-2.384h33.468a49.845 49.845 0 014.743-2.385h-38.21v-2.384h41.12V41.224h2.98v23.482c4.87-1.425 9.264-1.871 12.516-1.73 5.302.16 10.087.895 14.397 2.088h13.786V32.88h-.769v-9.833h-2.682v9.833h-4.767V11.427h8.218V5.466h1.192v6.21c.856.362 1.795 1.056 1.615 2.135v.037c.6-2.16 2.118-2.722 2.853-2.722h18.475c2.383.238 2.979 2.285 2.979 3.278V32.58H126.69v.3h-1.615v32.183h28.008V5.466h1.192v59.598h21.283v-24.15l-3.999-5.948-4.767-28.01V4.572h1.192v-2.98h-62.576v2.98l1.192 1.192v2.384l1.49 1.49V34.37c-1.431.239-1.987 2.88-2.086 4.172h-7.45V6.956h-4.172V.4h-6.257v38.142H84.55V24.537h-2.086v14.005c-2.622-.477-3.476 1.788-3.575 2.98H5.288v3.276h73.898v2.384H5.288v7.151h72.706v2.384H33.125v26.225H53.56v2.384H33.125v15.495h3.152v-.597zm141.07-56.652v21.492h5.835V52.249l-5.835-8.677zm-1.788 23.875h-9.537v45.888h5.538v-7.152h23.243c4.011-14.75 10.114-27.42 19.015-32.265.932-.507 2.019-.928 3.217-1.276 1.279-.142 3.043-.33 5.112-.526 10.263-.797 21.671-.716 21.671-.716a115.7 115.7 0 01-3.179-.103h-.004c-1.264-.05-2.735-.109-4.335-.151-5.921-.158-13.602-.092-19.062 1.439-.834.097-1.643.202-2.42.315-.5-2.137-13.883 8.987-16.44 12.127h-2.854v12.515c0 .993-.417 2.979-2.086 2.979h-11.025v-2.085h9.237c.497-.1 1.43-.716 1.192-2.384v-3.874h-8.939c-.894.1-2.682-.358-2.682-2.98v-6.853h-3.874v8.343h-1.788v-8.343h-2.211V70.128h2.211v-2.68zm15.966 17.58h1.019v4.171h-8.641v-6.81l7.622 2.639zm-14.178-14.9v-2.68h9.708v2.68h-9.708zm-32.01-2.68v41.242c-.848-9.954-5.411-23.682-16.405-33.497h12.831v-2.98h-13.111v2.732a45.448 45.448 0 00-11.818-7.497h28.503zm18.301 0h-15.917v45.888h15.917V67.447zM5.288 56.717h26.05v26.225H5.287V56.717zm-.001 28.61h26.05v15.494h-2.382v2.98h7.322v1.786h-7.322v4.172h7.322v2.384h-7.322v4.767h7.322v2.384h-13.41v-19.07h-11.62v1.788c-1.49.794-3.755 3.039-.895 5.661 1.391.497 4.351.596 5.067-2.98.794-.298 2.205-.119 1.49 2.98-.994 2.185-5.663 5.662-9.834 1.49-1.092-1.093-2.622-4.052 0-7.151v-1.788H.818V84.729h4.469v.597zm19.666-26.822h-2.98v13.111h2.98V58.505zm31.712-5.958v-2.98h-13.11v2.98h13.11zm99.696-19.965V11.724h7.747l3.576 20.858h-5.066v-5.96h-2.085v5.96h-4.172zm5.067 45.59V75.79h-10.131v2.384h10.131zm0 11.92v2.384h-10.131v-2.384h10.131zm0 15.495v-2.384h-10.131v2.384h10.131z" fill="#A0A1A2"/><path d="M235.318 71.4c-18.5 0-33 15-42 34.999l3.5-21.5c14.5-13.5 22-18.498 38.5-18.499 32 0 42 27.5 44.5 37.499h-4c-7.2-28-31.5-32.5-40.5-32.5z" fill="#A0A1A2"/></svg>
